public/images/screws.svg

<svg width="532" height="74" viewBox="0 0 532 74" fill="none" xmlns="http://www.w3.org/2000/svg">
<circle cx="36.7425" cy="36.7425" r="30" transform="rotate(105 36.7425 36.7425)" fill="#A89E9E"/>
<circle cx="36.7413" cy="36.7431" r="25" transform="rotate(105 36.7413 36.7431)" fill="#100D26"/>
<path d="M43.2098 60.8917C47.9863 59.6123 52.2761 56.945 55.5367 53.2273C58.7972 49.5096 60.882 44.9085 61.5274 40.0059C62.1728 35.1032 61.3497 30.1193 59.1624 25.6845C56.975 21.2496 53.5216 17.5631 49.2389 15.0911C44.9562 12.6191 40.0365 11.4727 35.1022 11.7969C30.168 12.1211 25.4406 13.9013 21.5182 16.9124C17.5957 19.9235 14.6543 24.0302 13.066 28.7131C11.4777 33.396 11.3138 38.4447 12.595 43.2208C14.3126 49.6232 18.5026 55.0813 24.2436 58.3951C29.9847 61.7088 36.8067 62.6069 43.2098 60.8917V60.8917ZM22.4557 36.3952L31.7938 33.8879L29.2865 24.5498L37.0916 22.4667L39.5989 31.8048L48.937 29.2975L51.0201 37.1026L41.682 39.6099L44.1893 48.948L36.3842 51.0311L33.8769 41.693L24.5388 44.2003L22.4557 36.3952Z" fill="#96AAB9"/>
<circle cx="502" cy="36.7422" r="30" fill="#A89E9E"/>
<circle cx="502" cy="36.7422" r="25" fill="#100D26"/>
<path d="M523.652 24.2439C521.179 19.9613 517.493 16.508 513.058 14.3207C508.623 12.1335 503.639 11.3106 498.736 11.9561C493.834 12.6016 489.233 14.6866 485.515 17.9472C481.798 21.2079 479.13 25.4978 477.851 30.2744C476.572 35.0509 476.738 40.0996 478.328 44.7819C479.918 49.4641 482.861 53.5696 486.785 56.5791C490.709 59.5886 495.437 61.3669 500.371 61.6891C505.306 62.0112 510.225 60.8628 514.506 58.3891C520.246 55.073 524.434 49.6131 526.149 43.21C527.864 36.8069 526.966 29.9849 523.652 24.2439V24.2439ZM505.361 50.631L500.523 42.2601L492.152 47.0988L488.119 40.0988L496.49 35.2601L491.652 26.8891L498.652 22.8568L503.49 31.2278L511.861 26.3891L515.894 33.3891L507.523 38.2278L512.361 46.5988L505.361 50.631Z" fill="#96AAB9"/>
</svg>

<svg xmlns="http://www.w3.org/2000/svg" width="532" height="74" fill="none" viewBox="0 0 532 74"><circle cx="36.742" cy="36.742" r="30" fill="#a89e9e" transform="rotate(105 36.742 36.742)"/><circle cx="36.741" cy="36.743" r="25" fill="#100d26" transform="rotate(105 36.741 36.743)"/><path fill="#96aab9" d="M43.21 60.892a25 25 0 1 0-12.937-48.297A25 25 0 0 0 43.21 60.892M22.456 36.395l9.338-2.507-2.508-9.338 7.806-2.083 2.507 9.338 9.338-2.508 2.083 7.806-9.338 2.507 2.507 9.338-7.805 2.083-2.507-9.338-9.338 2.507z"/><circle cx="502" cy="36.742" r="30" fill="#a89e9e"/><circle cx="502" cy="36.742" r="25" fill="#100d26"/><path fill="#96aab9" d="M523.652 24.244a25.01 25.01 0 0 0-24.916-12.288 25 25 0 0 0-20.885 18.318 25.005 25.005 0 0 0 8.934 26.305 25.002 25.002 0 0 0 39.364-13.369 25 25 0 0 0-2.497-18.966M505.361 50.63l-4.838-8.37-8.371 4.838-4.033-7 8.371-4.839-4.838-8.37 7-4.033 4.838 8.37 8.371-4.838 4.033 7-8.371 4.839 4.838 8.37z"/></svg>
